src/assets/icons/tokenTypeOne.svg

<?xml version="1.0" encoding="iso-8859-1"?>
<!-- Generator: Adobe Illustrator 17.1.0, SVG Export Plug-In . SVG Version: 6.00 Build 0)  -->
<!DOCTYPE svg PUBLIC "-//W3C//DTD SVG 1.1//EN" "http://www.w3.org/Graphics/SVG/1.1/DTD/svg11.dtd">
<svg version="1.1" id="Capa_1" xmlns="http://www.w3.org/2000/svg" xmlns:xlink="http://www.w3.org/1999/xlink" x="0px" y="0px"
	 viewBox="0 0 296 296" style="enable-background:new 0 0 296 296;" xml:space="preserve" fill="#FDF6EB">
<g>
	<path d="M270.213,296c0-61-22.546-93.876-57.546-109.694V296H270.213z"/>
	<path d="M25.787,296h55.88V186.766C48.667,202.765,25.787,236,25.787,296z"/>
	<path d="M147.667,205.006c-18.313,0-35-5.171-50-14.124V296h99V191.486C182.667,200.066,165.563,205.006,147.667,205.006z"/>
	<path d="M148,82c39.888,0,74.516,8.21,93.974,13.999c0.001-1.792,0.002-3.523,0.003-5.103c0.002-4.494,0.004-7.783,0.005-7.886
		C241.58,37.091,207.705,0,164.954,0H132.8C90.051,0,54.441,37.091,54.02,83.011c0.001,0.103,0.003,3.39,0.005,7.879
		c0.001,1.581,0.002,3.314,0.003,5.108C73.486,90.21,108.113,82,148,82z"/>
	<path d="M56.381,127.202c4.352-1.337,8.745-2.561,13.162-3.706c6.718,37.246,39.276,65.51,78.457,65.51
		c39.274,0,71.895-28.398,78.505-65.777c4.399,1.145,8.771,2.371,13.102,3.708c0.81,0.251,1.628,0.363,2.432,0.356
		c3.39-0.028,6.52-2.227,7.573-5.639c0.723-2.339,0.316-4.754-0.906-6.668c-0.983-1.54-2.66-2.756-4.542-3.337
		c-10.911-3.37-21.496-6.142-33.496-8.337v10.811c0,15.926-12.991,28.837-28.918,28.837c-12.887,0-23.946-8.391-27.452-20.111
		c-3.01-10.058,0.268-21.694-6.171-21.977c-6.44,0.282-3.182,11.919-6.192,21.977c-3.508,11.721-14.972,20.111-27.859,20.111
		c-15.928,0-29.407-12.911-29.407-28.837v-10.538c-11,2.203-22.233,4.97-33.15,8.322c-1.745,0.536-3.084,1.619-4.068,2.998
		c-1.398,1.959-1.867,4.52-1.106,6.998c1.055,3.436,4.234,5.645,7.648,5.651c0.006,0,0.022,0.002,0.028,0.002
		C54.797,127.557,55.599,127.442,56.381,127.202z"/>
</g>

</svg>

<?xml version="1.0" encoding="UTF-8" standalone="no"?>
<!DOCTYPE svg PUBLIC "-//W3C//DTD SVG 1.1//EN" "http://www.w3.org/Graphics/SVG/1.1/DTD/svg11.dtd">
<svg width="100%" height="100%" viewBox="0 0 296 296" version="1.1" xmlns="http://www.w3.org/2000/svg" xmlns:xlink="http://www.w3.org/1999/xlink" xml:space="preserve" xmlns:serif="http://www.serif.com/" style="fill-rule:evenodd;clip-rule:evenodd;stroke-linejoin:round;stroke-miterlimit:1.41421;">
    <g>
        <path d="M270.213,296C270.213,235 247.667,202.124 212.667,186.306L212.667,296L270.213,296Z" style="fill:rgb(251,227,194);fill-rule:nonzero;"/>
        <path d="M25.787,296L81.667,296L81.667,186.766C48.667,202.765 25.787,236 25.787,296Z" style="fill:rgb(251,227,194);fill-rule:nonzero;"/>
        <path d="M147.667,205.006C129.354,205.006 112.667,199.835 97.667,190.882L97.667,296L196.667,296L196.667,191.486C182.667,200.066 165.563,205.006 147.667,205.006Z" style="fill:rgb(251,227,194);fill-rule:nonzero;"/>
        <path d="M148,82C187.888,82 222.516,90.21 241.974,95.999C241.975,94.207 241.976,92.476 241.977,90.896C241.979,86.402 241.981,83.113 241.982,83.01C241.58,37.091 207.705,0 164.954,0L132.8,0C90.051,0 54.441,37.091 54.02,83.011C54.021,83.114 54.023,86.401 54.025,90.89C54.026,92.471 54.027,94.204 54.028,95.998C73.486,90.21 108.113,82 148,82Z" style="fill:rgb(251,227,194);fill-rule:nonzero;"/>
        <path d="M56.381,127.202C60.733,125.865 65.126,124.641 69.543,123.496C76.261,160.742 108.819,189.006 148,189.006C187.274,189.006 219.895,160.608 226.505,123.229C230.904,124.374 235.276,125.6 239.607,126.937C240.417,127.188 241.235,127.3 242.039,127.293C245.429,127.265 248.559,125.066 249.612,121.654C250.335,119.315 249.928,116.9 248.706,114.986C247.723,113.446 246.046,112.23 244.164,111.649C233.253,108.279 222.668,105.507 210.668,103.312L210.668,114.123C210.668,130.049 197.677,142.96 181.75,142.96C168.863,142.96 157.804,134.569 154.298,122.849C151.288,112.791 154.566,101.155 148.127,100.872C141.687,101.154 144.945,112.791 141.935,122.849C138.427,134.57 126.963,142.96 114.076,142.96C98.148,142.96 84.669,130.049 84.669,114.123L84.669,103.585C73.669,105.788 62.436,108.555 51.519,111.907C49.774,112.443 48.435,113.526 47.451,114.905C46.053,116.864 45.584,119.425 46.345,121.903C47.4,125.339 50.579,127.548 53.993,127.554C53.999,127.554 54.015,127.556 54.021,127.556C54.797,127.557 55.599,127.442 56.381,127.202Z" style="fill:rgb(251,227,194);fill-rule:nonzero;"/>
    </g>
</svg>
